static/assets/head_icons_png/man/bizi/1035266.svg

<svg xmlns="http://www.w3.org/2000/svg" width="7" height="10"><g transform="translate(3.05 4.55)"><radialGradient id="a" gradientUnits="userSpaceOnUse" gradientTransform="rotate(2.106 438.992 -5.659) scale(.01362)" spreadMethod="pad" cx="0" cy="0" r="819.2" fx="0" fy="0"><stop offset="0" stop-color="#fbbd9d"/><stop offset="1" stop-color="#fedec1"/></radialGradient><path d="M2.25 2.15H2.2l-.1-.1-.15-.15-.4-.55-.25.3Q.55 2.6.25 3.85l-.15.7-.2.05h-.3l-.25-1.05q-.3-.85-.85-1.6l-.65-.8.05-.05q.75-1 .65-2.2-.1-.95-.55-1.65l-.35-.5-.15-.6.05.05q.7-.75 2.4-.75t2.35.7l-.3.8q-.3.75-.35 2Q1.6.15 2.2 2.1l.15.2-.1-.15" fill="url(#a)"/><radialGradient id="b" gradientUnits="userSpaceOnUse" gradientTransform="rotate(6.577 -64.162 95.244) scale(.01003)" spreadMethod="pad" cx="0" cy="0" r="819.2" fx="0" fy="0"><stop offset="0" stop-color="#fbbd9d"/><stop offset="1" stop-color="#fedec1"/></radialGradient><path d="M2.35 2.3l.15.2.2.65-.35.8-1.2.4-1.05.2.15-.7q.3-1.25 1.05-2.2l.25-.3.4.55.15.15.1.1h.05l.1.15" fill="url(#b)"/><radialGradient id="c" gradientUnits="userSpaceOnUse" gradientTransform="rotate(6.537 -85.501 -96.372) scale(.01049)" spreadMethod="pad" cx="0" cy="0" r="819.2" fx="0" fy="0"><stop offset="0" stop-color="#fbbd9d"/><stop offset="1" stop-color="#fedec1"/></radialGradient><path d="M-.4 4.6l-.8-.2-.9-.25-.6-.1q-.45-.4-.35-1.05l.25-.65.65-1.2.65.8q.55.75.85 1.6L-.4 4.6" fill="url(#c)"/><radialGradient id="d" gradientUnits="userSpaceOnUse" gradientTransform="matrix(.00433 0 0 .00403 0 4.1)" spreadMethod="pad" cx="0" cy="0" r="819.2" fx="0" fy="0"><stop offset="0" stop-color="#f39b61"/><stop offset="1" stop-color="#f7bc99" stop-opacity=".314"/></radialGradient><path d="M-2.25 3.95l-.05-.1q-.05-.6.45-.7l.25-.05.25.15q.15.1.35.15l.8.25h.1l.35-.05.2-.1.25-.1h.05l.05-.05.4-.1h.7l.25.1.1.1.05.05q0-.1.15-.1 0-.6-.4-.95-.2-.3-.45-.25v.05l-.35-.55-.05-.1-.2-.3Q.75.8.8-.3l.05-1.6q.5-1.05 1-1.45-.6 1.2-.6 2.9-.05 1.7.7 2.35l.15.15.1.1.5 1-.35.8-1.2.4-1.25.25-1.1-.2-.9-.25-.15-.2" fill="url(#d)"/><radialGradient id="e" gradientUnits="userSpaceOnUse" gradientTransform="matrix(.00197 0 0 .00183 2.8 2.7)" spreadMethod="pad" cx="0" cy="0" r="819.2" fx="0" fy="0"><stop offset="0" stop-color="#f29860" stop-opacity=".514"/><stop offset="1" stop-color="#f7ba99" stop-opacity=".141"/></radialGradient><path d="M1.2 3.25l-.4.1-.05.05q.55-.55.55-1.25l-.1-.55.05.1.35.55V2.2q.25-.05.45.25l-.85.8" fill="url(#e)"/><radialGradient id="f" gradientUnits="userSpaceOnUse" gradientTransform="matrix(.00562 0 0 .00645 -5 .5)" spreadMethod="pad" cx="0" cy="0" r="819.2" fx="0" fy="0"><stop offset="0" stop-color="#f39b61"/><stop offset="1" stop-color="#f7bc99" stop-opacity=".314"/></radialGradient><path d="M-2.1 4.15l-.6-.1q-.45-.4-.35-1.05l.25-.65.7-1.25q.75-1 .65-2.2-.1-.95-.55-1.65l-.35-.5-.15-.6 1.15.5q.55.3.5.65l.05 1.35v.75L-.95.95l-.1.25-.1.3q-.2.5-.5.65l-.05.05-.15.1-.25.15-.35.05-.25.25-.1.45.25.5.2.2.1.05.15.2m.25-1v-.1l.25.05-.25.05" fill="url(#f)"/><radialGradient id="g" gradientUnits="userSpaceOnUse" gradientTransform="matrix(.00293 0 0 .00273 -3.05 2.55)" spreadMethod="pad" cx="0" cy="0" r="819.2" fx="0" fy="0"><stop offset="0" stop-color="#f29860" stop-opacity=".514"/><stop offset="1" stop-color="#f7ba99" stop-opacity=".141"/></radialGradient><path d="M-1 3.4q-.2-.05-.35-.15l-.5-.95.15-.1.05-.05q.3-.15.5-.65v.35q0 1.2.95 1.8L-1 3.4" fill="url(#g)"/><radialGradient id="h" gradientUnits="userSpaceOnUse" gradientTransform="matrix(.00342 0 0 .00317 1.75 -.3)" spreadMethod="pad" cx="0" cy="0" r="819.2" fx="210004" fy="0"><stop offset="0" stop-color="#d66d3e" stop-opacity=".812"/><stop offset="1" stop-color="#ffdec2" stop-opacity="0"/></radialGradient><path d="M2.1-2.7q-.4.75-.35 1.5L1.9-.05q0 .4.3.85.3.4.85.6-.5.3-.5.8l-.05.05q-.1-.5-1.45-1.15L.9-1.15q-.15-2.6 2.05-2.9L2.1-2.7" fill="url(#h)"/><radialGradient id="i" gradientUnits="userSpaceOnUse" gradientTransform="matrix(.00093 .00017 -.00012 .00072 -.1 2.6)" spreadMethod="pad" cx="0" cy="0" r="819.2" fx="0" fy="0"><stop offset=".314" stop-color="#fff" stop-opacity=".663"/><stop offset="1" stop-color="#fff" stop-opacity="0"/></radialGradient><path d="M-.55 2.2H0l.5.2.15.35L.4 3l-.55.05-.5-.25-.2-.35.3-.25" fill="url(#i)"/><radialGradient id="j" gradientUnits="userSpaceOnUse" gradientTransform="matrix(.00069 .00006 -.00003 .00183 -.15 .4)" spreadMethod="pad" cx="0" cy="0" r="819.2" fx="0" fy="0"><stop offset=".314" stop-color="#fff" stop-opacity=".431"/><stop offset="1" stop-color="#fff" stop-opacity="0"/></radialGradient><path d="M.1-.65L.25.45.15 1.5l-.1.2v.05l-.2.15-.2-.2-.05-.05-.1-.2L-.6.4l.1-1.05.3-.45.3.45" fill="url(#j)"/><path d="M1.7 3.7q-.8.25-1 .5l.8-.7h.05l.15.15v.05m-2.95.05l-.65-.15q.1-.2.35-.2l.55.25.15.1.25.55q-.2-.5-.55-.55h-.1" fill="#823909"/></g></svg>

<?xml version="1.0" encoding="utf-8"?>
<svg version="1.1" id="Layer_1"
xmlns="http://www.w3.org/2000/svg"
xmlns:xlink="http://www.w3.org/1999/xlink"
xmlns:author="http://www.sothink.com"
width="7px" height="10px"
xml:space="preserve">
<g id="486" transform="matrix(1, 0, 0, 1, 3.05, 4.55)">
<radialGradient
id="RadialGradID_4164" gradientUnits="userSpaceOnUse" gradientTransform="matrix(0.0136108, 0.000473022, -0.000473022, 0.0136108, 0.1, -15.25)" spreadMethod ="pad" cx="0" cy="0" r="819.2" fx="0" fy="0" >
<stop  offset="0"  style="stop-color:#FBBD9D;stop-opacity:1" />
<stop  offset="1"  style="stop-color:#FEDEC1;stop-opacity:1" />
</radialGradient>
<path style="fill:url(#RadialGradID_4164) " d="M2.25,2.15L2.2 2.15L2.1 2.05L1.95 1.9L1.55 1.35L1.3 1.65Q0.55 2.6 0.25 3.85L0.1 4.55L-0.1 4.6L-0.4 4.6L-0.65 3.55Q-0.95 2.7 -1.5 1.95L-2.15 1.15L-2.1 1.1Q-1.35 0.1 -1.45 -1.1Q-1.55 -2.05 -2 -2.75L-2.35 -3.25L-2.5 -3.85L-2.45 -3.8Q-1.75 -4.55 -0.05 -4.55Q1.65 -4.55 2.3 -3.85L2 -3.05Q1.7 -2.3 1.65 -1.05Q1.6 0.15 2.2 2.1L2.35 2.3L2.25 2.15" />
<radialGradient
id="RadialGradID_4165" gradientUnits="userSpaceOnUse" gradientTransform="matrix(0.00996399, 0.00112915, -0.00112915, 0.00996399, 10.3, 7.85)" spreadMethod ="pad" cx="0" cy="0" r="819.2" fx="0" fy="0" >
<stop  offset="0"  style="stop-color:#FBBD9D;stop-opacity:1" />
<stop  offset="1"  style="stop-color:#FEDEC1;stop-opacity:1" />
</radialGradient>
<path style="fill:url(#RadialGradID_4165) " d="M2.35,2.3L2.5 2.5L2.7 3.15L2.35 3.95L1.15 4.35L0.1 4.55L0.25 3.85Q0.55 2.6 1.3 1.65L1.55 1.35L1.95 1.9L2.1 2.05L2.2 2.15L2.25 2.15L2.35 2.3" />
<radialGradient
id="RadialGradID_4166" gradientUnits="userSpaceOnUse" gradientTransform="matrix(0.0104218, 0.00117493, -0.00117493, 0.0104218, -11.35, 8.95)" spreadMethod ="pad" cx="0" cy="0" r="819.2" fx="0" fy="0" >
<stop  offset="0"  style="stop-color:#FBBD9D;stop-opacity:1" />
<stop  offset="1"  style="stop-color:#FEDEC1;stop-opacity:1" />
</radialGradient>
<path style="fill:url(#RadialGradID_4166) " d="M-0.4,4.6L-1.2 4.4L-2.1 4.15L-2.7 4.05Q-3.15 3.65 -3.05 3L-2.8 2.35L-2.15 1.15L-1.5 1.95Q-0.95 2.7 -0.65 3.55L-0.4 4.6" />
<radialGradient
id="RadialGradID_4167" gradientUnits="userSpaceOnUse" gradientTransform="matrix(0.0043335, 0, 0, 0.00402832, 0, 4.1)" spreadMethod ="pad" cx="0" cy="0" r="819.2" fx="0" fy="0" >
<stop  offset="0"  style="stop-color:#F39B61;stop-opacity:1" />
<stop  offset="1"  style="stop-color:#F7BC99;stop-opacity:0.313725" />
</radialGradient>
<path style="fill:url(#RadialGradID_4167) " d="M-2.25,3.95L-2.3 3.85Q-2.35 3.25 -1.85 3.15L-1.6 3.1L-1.35 3.25Q-1.2 3.35 -1 3.4L-0.2 3.65L-0.1 3.65L0.25 3.6L0.45 3.5L0.7 3.4L0.75 3.4L0.8 3.35L1.2 3.25L1.55 3.25L1.9 3.25L2.15 3.35L2.25 3.45L2.3 3.5Q2.3 3.4 2.45 3.4Q2.45 2.8 2.05 2.45Q1.85 2.15 1.6 2.2L1.6 2.25L1.25 1.7L1.2 1.6L1 1.3Q0.75 0.8 0.8 -0.3L0.85 -1.9Q1.35 -2.95 1.85 -3.35Q1.25 -2.15 1.25 -0.45Q1.2 1.25 1.95 1.9L2.1 2.05L2.2 2.15L2.7 3.15L2.35 3.95L1.15 4.35L-0.1 4.6L-1.2 4.4L-2.1 4.15L-2.25 3.95" />
<radialGradient
id="RadialGradID_4168" gradientUnits="userSpaceOnUse" gradientTransform="matrix(0.00196838, 0, 0, 0.00183105, 2.8, 2.7)" spreadMethod ="pad" cx="0" cy="0" r="819.2" fx="0" fy="0" >
<stop  offset="0"  style="stop-color:#F29860;stop-opacity:0.513725" />
<stop  offset="1"  style="stop-color:#F7BA99;stop-opacity:0.141176" />
</radialGradient>
<path style="fill:url(#RadialGradID_4168) " d="M1.2,3.25L0.8 3.35L0.75 3.4Q1.3 2.85 1.3 2.15L1.2 1.6L1.25 1.7L1.6 2.25L1.6 2.2Q1.85 2.15 2.05 2.45L1.2 3.25" />
<radialGradient
id="RadialGradID_4169" gradientUnits="userSpaceOnUse" gradientTransform="matrix(0.00561523, 0, 0, 0.00645447, -5, 0.5)" spreadMethod ="pad" cx="0" cy="0" r="819.2" fx="0" fy="0" >
<stop  offset="0"  style="stop-color:#F39B61;stop-opacity:1" />
<stop  offset="1"  style="stop-color:#F7BC99;stop-opacity:0.313725" />
</radialGradient>
<path style="fill:url(#RadialGradID_4169) " d="M-2.1,4.15L-2.7 4.05Q-3.15 3.65 -3.05 3L-2.8 2.35L-2.1 1.1Q-1.35 0.1 -1.45 -1.1Q-1.55 -2.05 -2 -2.75L-2.35 -3.25L-2.5 -3.85L-1.35 -3.35Q-0.8 -3.05 -0.85 -2.7L-0.8 -1.35L-0.8 -0.6L-0.95 0.95L-1.05 1.2L-1.15 1.5Q-1.35 2 -1.65 2.15L-1.7 2.2L-1.85 2.3L-2.1 2.45L-2.45 2.5L-2.7 2.75L-2.8 3.2L-2.55 3.7L-2.35 3.9L-2.25 3.95L-2.1 4.15M-1.85,3.15L-1.85 3.05L-1.6 3.1L-1.85 3.15" />
<radialGradient
id="RadialGradID_4170" gradientUnits="userSpaceOnUse" gradientTransform="matrix(0.00292969, 0, 0, 0.00273132, -3.05, 2.55)" spreadMethod ="pad" cx="0" cy="0" r="819.2" fx="0" fy="0" >
<stop  offset="0"  style="stop-color:#F29860;stop-opacity:0.513725" />
<stop  offset="1"  style="stop-color:#F7BA99;stop-opacity:0.141176" />
</radialGradient>
<path style="fill:url(#RadialGradID_4170) " d="M-1,3.4Q-1.2 3.35 -1.35 3.25L-1.85 2.3L-1.7 2.2L-1.65 2.15Q-1.35 2 -1.15 1.5L-1.15 1.85Q-1.15 3.05 -0.2 3.65L-1 3.4" />
<radialGradient
id="RadialGradID_4171" gradientUnits="userSpaceOnUse" gradientTransform="matrix(0.00341797, 0, 0, 0.00317383, 1.75, -0.3)" spreadMethod ="pad" cx="0" cy="0" r="819.2" fx="210004" fy="0" >
<stop  offset="0"  style="stop-color:#D66D3E;stop-opacity:0.811765" />
<stop  offset="1"  style="stop-color:#FFDEC2;stop-opacity:0" />
</radialGradient>
<path style="fill:url(#RadialGradID_4171) " d="M2.1,-2.7Q1.7 -1.95 1.75 -1.2L1.9 -0.05Q1.9 0.35 2.2 0.8Q2.5 1.2 3.05 1.4Q2.55 1.7 2.55 2.2L2.5 2.25Q2.4 1.75 1.05 1.1L0.9 -1.15Q0.75 -3.75 2.95 -4.05L2.1 -2.7" />
<radialGradient
id="RadialGradID_4172" gradientUnits="userSpaceOnUse" gradientTransform="matrix(0.000930786, 0.000167847, -0.00012207, 0.000717163, -0.1, 2.6)" spreadMethod ="pad" cx="0" cy="0" r="819.2" fx="0" fy="0" >
<stop  offset="0.313725"  style="stop-color:#FFFFFF;stop-opacity:0.662745" />
<stop  offset="1"  style="stop-color:#FFFFFF;stop-opacity:0" />
</radialGradient>
<path style="fill:url(#RadialGradID_4172) " d="M-0.55,2.2L0 2.2L0.5 2.4L0.65 2.75L0.4 3L-0.15 3.05L-0.65 2.8L-0.85 2.45L-0.55 2.2" />
<radialGradient
id="RadialGradID_4173" gradientUnits="userSpaceOnUse" gradientTransform="matrix(0.000686646, 6.10352e-005, -3.05176e-005, 0.00183105, -0.15, 0.4)" spreadMethod ="pad" cx="0" cy="0" r="819.2" fx="0" fy="0" >
<stop  offset="0.313725"  style="stop-color:#FFFFFF;stop-opacity:0.431373" />
<stop  offset="1"  style="stop-color:#FFFFFF;stop-opacity:0" />
</radialGradient>
<path style="fill:url(#RadialGradID_4173) " d="M0.1,-0.65L0.25 0.45L0.15 1.5L0.05 1.7L0.05 1.75L-0.15 1.9L-0.35 1.7L-0.4 1.65L-0.5 1.45L-0.6 0.4L-0.5 -0.65L-0.2 -1.1L0.1 -0.65" />
<path style="fill:#823909;fill-opacity:1" d="M1.7,3.7Q0.9 3.95 0.7 4.2L1.5 3.5L1.55 3.5L1.7 3.65L1.7 3.7M-1.25,3.75L-1.9 3.6Q-1.8 3.4 -1.55 3.4L-1 3.65L-0.85 3.75L-0.6 4.3Q-0.8 3.8 -1.15 3.75L-1.25 3.75" />
</g>
</svg>
